X: 161366
T: Philip O'Beirne's Delight
S: "Ceol Rince na hEireann" 1/170
Z: B.Black
L: 1/8
M: 4/4
R: reel
K: D
AG||FD (3DDD FD (3DDD|EA, (3A,A,A, EA, (3A,A,A,|FD (3DDD DFAF|\
GBec dBAG|
FD (3DDD FD (3DDD|EA,A,G, (3A,B,C DE|(3FGF DF DFAF|GBec d3||
A|d2 eg fdfd|eAce dcBA|d2 eg fedf|eAce dAFA|
d2 eg (3fga fd|(3efg ec dcBA|a3f gfeg|fedf ecAG||
